!!!COM: Frescobaldi, Girolamo
!!!CDT: 1583///-1643
!!!ONM: No. 6
!!!OTL: No. 6: Canzon Seconda Basso solo
!!!OPR: Canzoni da sonare a una, due, tre et quattro, libro primo
!!!PPP: Venezia
!!!PDT: 1634
!!!URL: http://icking-music-archive.org/ByComposer/Frescobaldi.html
!!!ONB: Andrea Friggi, ed.
**kern	**kern
!Basso ad Organo	!Basso Solo
*staff2	*staff1
*Icello	*Icello
*clefF4	*clefF4
*k[]	*k[]
*met(C)	*met(C)
*M4/4	*M4/4
*MM120	*MM120
=1-	=1-
2.D\	2r
.	4.D\
4D\	.
.	8E\
=2	=2
4F\	4F\
8E\L	8E\L
8D\J	8D\J
4A\	4A\
4F#\	4F#\
=3	=3
4G\	4G\
4GG/	4GG/
4C/	8C/L
.	8BB/
4AA/	8AA/
.	8GG/J
=4	=4
2FF/	4.FF/
.	8FF/
4GG/	4GG/
4BB-/	4BB-/
=5	=5
2AA/	2AA/
4.D\	2r
8E\	.
=6	=6
4F\	2r
4D\	.
4.A\	4.A\
8B\	8B\
=7	=7
4c\	4c\
8B\L	8B\L
8A\J	8A\J
2D\	4d\
.	4D\
=8	=8
4.A\	4.A\
8G\	8G\
4F\	4F\
4C#/	4C#/
=9	=9
4D\	8D\L
.	8E\J
4F\	2F\
2C/	.
.	4E\
=10	=10
2F\	2F\
2G\	2r
=11	=11
4.AA/	4.AA/
8BB/	8BB/
4C/	4C/
8BB/L	8BB/L
8AA/J	8AA/J
=12	=12
4D\	4D\
4F\	4F\
4E\	4E\
4D\	4D\
=13	=13
4A\	4A\
4G#\	4G#\
4A\	8.A\L
.	16Gn\Jk
4F\	8.F\L
.	16E\Jk
=14	=14
4D\	8.D/L
.	16C/Jk
4BB-/	8.BB-/L
.	16AA/Jk
2GG/	4.GG/
.	8GG/
=15	=15
4AA/	4AA/
4BB/	4BB/
2C/	2C/
=16	=16
1FF	2FF/
.	2r
=17	=17
4.F\	4.F\
8G\	8G\
4A\	4A\
8G\L	8G\L
8F\J	8F\J
=18	=18
4B-\	4B-\
4G\	4G\
4A\	4A\
8G\L	8G\L
8F\J	8F\J
=19	=19
4G\	8.G\L
.	16F\Jk
2C/	8.E\L
.	16C\Jk
.	8.c\L
.	16B\Jk
4AA/	8.A\L
.	16G\Jk
=20	=20
4F#\	8.F#\L
.	16D\Jk
4D\	8.d\L
.	16c\Jk
2G\	8.B\L
.	16A\Jk
.	8.G\L
.	16Fn\Jk
=21	=21
4E\	8E\L
.	16F\L
.	16G\JJ
4C/	8C\L
.	16D\L
.	16E\JJ
2AA/	4.AA/
.	16BB/LL
.	16C/JJ
=22	=22
4.FF/	4.FF/
8GG/	8GG/
2AA/	2AA/
=23	=23
1D	1D
=24	=24
1C#	1r
=25	=25
2D\	1r
2E\	.
=26	=26
*M3/1	*M3/1
1A	0.r
1A	.
1B	.
=27	=27
1.c	0.r
2B\	.
1A	.
=28	=28
1B-	0.r
1G	.
1A	.
=29	=29
1D	1D
1D	1D
1E	1E
=30	=30
1F	1.F
1D	.
.	2D\
1AA	2AA/
.	2BB/
=31	=31
0C	2C/
.	2D\
.	2E\
.	2C/
1G	1G
=32	=32
1.F	2.F\
.	4E\
.	2F\
2D\	2D\
1A	2A\
.	2B\
=33	=33
0c	0c
1G	1B
=34	=34
1.C	0c
2C/	.
1BB	1r
=35	=35
1AA	1AA
1AA	1AA
1BB	1BB
=36	=36
1.C	1.C
2AA/	2AA/
1EE	2EE/
.	2FF/
=37	=37
0GG	1.GG
.	2G\
1D	2D\
.	2E\
=38	=38
0F	1F
.	2AA/
.	2BB/
1C	1C
=39	=39
1.F	2FF/
.	1F
2F\	2F\
1G	1G
=40	=40
1.A	1.A
2c\	2c\
1G	2G\
.	2A\
=41	=41
0B-	2B-\
.	2G\
.	2D\
.	2E\
1F	1F
=42	=42
0.C	0.C
=43	=43
*met(C)	*met(C)
*M4/4	*M4/4
2FF/	1FF
[2F\	.
=44	=44
2F\]	1r
2E\	.
=45	=45
[1D	2r
.	[2D\
=46	=46
2D\]	2D\]
2C#/	2C#/
=47	=47
2.D\	2.D\
4C/	4C/
=48	=48
1BB-	1BB-
=49	=49
2AA/	2.AA/
2A\	.
.	4A\
=50	=50
2G#\	2G#\
2A\	2A\
=51	=51
1E	1E
=52	=52
1AA	1AA
=53	=53
4A\	1r
8E\L	.
8A\J	.
8F\L	.
8F\	.
8E\	.
8D\J	.
=54	=54
4C#/	2r
4D\	.
2AA/	4A\
.	8E\L
.	8A\J
=55	=55
2D\	8F\L
.	16D\L
.	16E\JJ
.	8F\L
.	8D\J
4.A\	8A\L
.	16c\L
.	16B\JJ
.	8A\L
8F\	8F\J
=56	=56
4G\	4G\
4C/	4C/
2F\	2F\
=57	=57
2E\	2r
4D\	4D\
8AA/L	8AA/L
8D/J	8D/J
=58	=58
2C/	8C/L
.	16AA/L
.	16BB/JJ
.	8C/L
.	8AA/J
2G\	8BB/L
.	8GG/J
.	4G\
=59	=59
2D\	2D\
2A\	2r
=60	=60
*	*clefC4
2D\	4d\
.	8A\L
.	8d\J
2AA/	8c\L
.	16A\L
.	16B\JJ
.	8c\L
.	8A\J
=61	=61
1GG	8B\L
.	16d\L
.	16c\JJ
.	8B\L
.	8G\J
.	2d\
=62	=62
*	*clefF4
2AA/	8r
.	8A\L
.	8E\
.	8A\J
4D\	8F/L
.	8D/
8AA/L	8AA/
8C/J	8C/J
=63	=63
2BB/	8BB/L
.	16GG/L
.	16AA/JJ
.	8BB/L
.	8GG/J
4D\	4D\
8C/L	8C/L
8BB/J	8BB/J
=64	=64
2AA/	2AA/
2D\	2DD/
=65	=65
1E	1r
=66	=66
2D\	2r
[2G\	[2G\
=67	=67
2G\]	2G\]
2F#\	2F#\
=68	=68
2G#\	8G#\L
.	16A\L
.	16B\JJ
.	8A\L
.	8G#\J
2A\	2A\
=69	=69
1C#	2.C#/
.	4C#/
=70	=70
4D\	4D\
4BB-/	8BB-/L
.	16AA/L
.	16GG/JJ
2FF#/	2FF#/
=71	=71
2.GG/	4.GG/
.	8G\
.	8.D\L
.	16E\Jk
4G\	8.BB/L
.	16C/Jk
=72	=72
2G#\	2GG#/
2E\	8r
.	8E\L
.	8D\
.	8E\J
=73	=73
4AA/	8.AA/L
.	16AA/Jk
8GG/L	8GG/L
8AA/J	8AA/J
2EE/	2EE/
=74	=74
1AA	1AA
=75	=75
*M3/2	*M3/2
2E\	1.r
4A\	.
4c\	.
2B\	.
=76	=76
2A\	2A\
4D\	4D\
4F\	4F\
2E\	2E\
=77	=77
2F\	4.F\
.	8A\
4E\	4E\
4F\	4F\
2G\	2G\
=78	=78
1F#	4r
.	4d\
.	4A\
.	4c\
2G\	2B\
=79	=79
1D	4.D\
.	8E\
.	4F\
.	4D\
2E\	2E\
=80	=80
1C#	4r
.	4A\
.	4E\
.	4G\
2D\	2F\
=81	=81
1AA	4.AA/
.	8BB/
.	4C/
.	4AA/
2D\	2D\
=82	=82
1GG	1.GG
2C/	.
=83	=83
2G\	4r
.	4G\
4D\	4D\
4F\	4F\
2E\	2E\
=84	=84
1F	8F\L
.	8G\
.	8A\
.	8B\J
.	4c\
.	4F\
2G\	2G\
=85	=85
2C/	4r
.	4C/
4GG/	4GG/
4BB-/	4BB-/
2AA/	2AA/
=86	=86
1D	8D\L
.	8E\
.	8F\
.	8G\J
.	4A\
.	4D\
2E\	2E\
=87	=87
2.AA/	4.AA/
.	8BB/
.	4C/
4FF/	4FF/
2GG/	2GG/
=88	=88
1C	8C\L
.	8D\
.	8E\
.	8F\J
.	4G\
.	4C/
2D\	2D\
=89	=89
*met(C)	*met(C)
*M4/4	*M4/4
1GG	1GG
=90	=90
1G	1r
=91	=91
2A\	2r
2E\	2E\
=92	=92
2F\	2F\
2F#\	2F#\
=93	=93
2.BB/	2.BB/
8AA/L	8AA/L
8GG/J	8GG/J
=94	=94
2D\	2D\
2FF#/	2FF#/
=95	=95
1GG	1GG
=96	=96
1AA	1AA
=97	=97
2D\	2r
4D\	4D\
8D\L	8D\L
8D\J	8D\J
=98	=98
4D\	4D\
4F\	4F\
4C#/	4C#/
4D\	4D\
=99	=99
4.AA/	4.AA/
8BB/	8BB/
4C/	4C/
8GG/L	8GG/L
8AA/J	8AA/J
=100	=100
4BB-/	4BB-/
4FF/	4FF/
2GG/	2GG/
=101	=101
2AA/	2AA/
2E\	2r
=102	=102
4A\	4A\
8A\L	8A\L
8A\J	8A\J
4A\	4A\
4c\	4c\
=103	=103
4G#\	4G#\
4A\	4A\
2E\	2E\
=104	=104
4.A\	4r
.	8A\L
8B\	8B\J
4c\	4c\
4G\	8G\L
.	8A\J
=105	=105
4B-\	4B-\
4F\	4F\
2C/	2C/
=106	=106
2FF/	2FF/
4F\	2r
4G\	.
=107	=107
4A\	4A\
8A\L	8A\L
8A\J	8A\J
4.A\	4.A\
8B-\	8B-\
=108	=108
4F\	8F\L
.	8A\
8D\L	8D\
8E\J	8E\J
4F\	4F\
4AA/	4AA/
=109	=109
2C/	2C/
2FF/	2F\
=110	=110
2C/	1r
2D\	.
=111	=111
*	*clefC4
2E\	4e\
.	8e\L
.	8e\J
[2AA/	4.e\
.	8f\
=112	=112
2AA/]	8c\L
.	8e\
.	8A\
.	8B\J
2C/	4c\
.	8B\L
.	8A\J
=113	=113
4G\	8G/L
.	8A/J
4B-\	4B-\
4F\	8F/L
.	8G/J
4A\	4A\
=114	=114
4E\	8E/L
.	8F/J
4G\	4G/
4D\	8D/L
.	8E/J
4F\	4F/
=115	=115
2G\	2G/
2A\	2A\
=116	=116
*	*clefF4
2D\	4D\
.	8D\L
.	8D\J
4.D\	4.D\
8F\	8F\
=117	=117
8C/L	8C/L
8D/	8D/
8AA/	8AA/
8BB/J	8BB/J
2C/	2C/
=118	=118
4F\	2r
4G\	.
4A\	8A\L
.	8B\J
[4c\	[4c\
=119	=119
4c\]	8c\L]
.	8B\
4G\	8G\
.	8A\J
4B-\	4B-\
4D\	8D\L
.	8E\J
=120	=120
4F\	4F\
4AA/	8AA/L
.	8BB/J
4C/	4C/
4GG/	8GG/L
.	8AA/J
=121	=121
4BB-/	4BB-/
4FF/	4FF/
2GG/	2GG/
=122	=122
1AA	1AA
=123	=123
0D	0D
==	==
*-	*-
!!!ENC: Craig Stuart Sapp
!!!END: 2004/12/14/
